svgs/sharp-regular/file-exclamation.svg

<svg xmlns="http://www.w3.org/2000/svg" viewBox="0 0 384 512"><!--! Font Awesome Pro 6.6.0 by @fontawesome - https://fontawesome.com License - https://fontawesome.com/license (Commercial License) Copyright 2024 Fonticons, Inc. --><path d="M48 464L48 48l176 0 0 112 112 0 0 304L48 464zM256 0L48 0 0 0 0 48 0 464l0 48 48 0 288 0 48 0 0-48 0-336L256 0zM216 192l-48 0 0 24 0 112 0 24 48 0 0-24 0-112 0-24zM168 384l0 48 48 0 0-48-48 0z"/></svg>

<svg xmlns="http://www.w3.org/2000/svg" viewBox="0 0 384 512"><!--! Font Awesome Pro 6.4.2 by @fontawesome - https://fontawesome.com License - https://fontawesome.com/license (Commercial License) Copyright 2023 Fonticons, Inc. --><path d="M48 464V48H224V160H336V464H48zM256 0H48 0V48 464v48H48 336h48V464 128L256 0zM216 192H168v24V328v24h48V328 216 192zM168 384v48h48V384H168z"/></svg>
